!!!OTL: 426. Ueberschwaengliche Liebe.
!!!ODT: 1849
!!!ARE: Europa, Mitteleuropa, Deutschland, Rheinland
!!!SCT: B0426
!!!TXL: @@DE
!!!YEM: Copyright 1995, estate of Helmut Schaffrath.
**kern	**text
*ICvox	*
*Ivox	*
*clefG2	*
*M2/4	*
*k[b-]	*
*F:	*
!LO:TX:a:t=Heiter.	!
{16fL	Mein
16gJ	.
=1	=1
8a	Liebchen
8a	.
8a	gleicht
8a	dem
=2	=2
16b-L	Rös-
16ccJ	.
16b-L	-lein
16ccJ	.
8g}	roth,
{8a	das
=3	=3
8f	friſch
8f	im
16aL	Ju-
16gJ	.
16fL	-ni
16gJ	.
=4	=4
4a	blüht;
8r}	.
{8a	mein
=5	=5
8b-	Liebchen
8b-	.
8g	gleicht
8g	der
=6	=6
8cc	Me-
16ddL	-lo-
16eeJ	.
8ff}	-die,
{16fL	die
16gJ	.
=7	=7
8a	ſüß
8g	ʒum
16b-L	Her-
16aJ	.
16g/L	-ʒen
16ddJ	.
=8	=8
4cc	ʒieht,
8r}	.
{8a	die
=9	=9
8b-	ſüß
8b-	ʒum
16aL	Her-
16gJ	.
16fL	-ʒen
16gJ	.
=10	=10
4f	ʒieht.
8r}	.
==	==
!!!AGN: Liebes - Lied, Liebes - Lust
!!!GTL: Liebeslieder - Liebeslust
!!!ONB: ESAC (Essen Associative Code) Database: BOEHME
!!!AMT: simple duple
!!!AIN: vox
!!!EED: Helmut Schaffrath
!!!EEV: 1.0
!!Mündlich. 1849 vom Rhein.
!!@@COMMENT:"Aus K. Becker's Manuskripten dankend entnommen."
!!@@END:
!!!URL-scan: https://archive.org/details/BoehmeVtLieder1895/page/n347/mode/2up
!!!ENC: Anna Maria Matuszewska
!!!EEV: 2024/09/07
*-	*-
